src/svgo/admin-media.svg

<svg width="20" height="20" viewBox="0 0 20 20" fill="none" xmlns="http://www.w3.org/2000/svg">
<path d="M17.1251 6.17151L15.0791 0.536515C14.9281 0.120515 14.4841 -0.100485 14.0901 0.044515L0.492078 5.00751C0.0980778 5.15151 -0.100922 5.60451 0.0510778 6.02051L2.20708 11.9615V8.77852C2.20708 7.34052 3.35508 6.17151 4.76708 6.17151H8.36008L12.6451 3.16351L15.1241 6.17151H17.1251V6.17151ZM19.2381 8.00152H4.76708C4.6657 8.00136 4.56531 8.02146 4.4718 8.06064C4.3783 8.09983 4.29357 8.15729 4.22258 8.22968C4.1516 8.30206 4.09579 8.38789 4.05844 8.48214C4.02109 8.57639 4.00295 8.67716 4.00508 8.77852V18.1985C4.00608 18.6425 4.34808 19.0015 4.76708 19.0015H19.2381C19.6581 19.0015 20.0001 18.6425 20.0001 18.1985V8.77852C20.0022 8.67716 19.9841 8.57639 19.9467 8.48214C19.9094 8.38789 19.8536 8.30206 19.7826 8.22968C19.7116 8.15729 19.6269 8.09983 19.5334 8.06064C19.4398 8.02146 19.3395 8.00136 19.2381 8.00152V8.00152ZM18.0001 17.0015H6.00008V15.0015L7.98408 10.9835L10.7521 14.4195L13.3501 11.7575L16.6881 10.5525L18.0001 14.0015V17.0015Z" />
</svg>

<svg xmlns="http://www.w3.org/2000/svg" xmlns:xlink="http://www.w3.org/1999/xlink" viewBox="0 0 20 20" id="entypo-images" width="20" height="20"><g><path d="M17.125 6.17L15.079.535c-.151-.416-.595-.637-.989-.492L.492 5.006c-.394.144-.593.597-.441 1.013l2.156 5.941V8.777c0-1.438 1.148-2.607 2.56-2.607H8.36l4.285-3.008 2.479 3.008h2.001zM19.238 8H4.767a.761.761 0 0 0-.762.777v9.42c.001.444.343.803.762.803h14.471c.42 0 .762-.359.762-.803v-9.42A.761.761 0 0 0 19.238 8zM18 17H6v-2l1.984-4.018 2.768 3.436 2.598-2.662 3.338-1.205L18 14v3z"></path></g></svg>
